symbolic/status/user-away-symbolic.svg

<svg width="16" height="16" version="1.1" xmlns="http://www.w3.org/2000/svg">
 <path d="M12.5 9C10.57 9 9 10.57 9 12.5s1.57 3.5 3.5 3.5 3.5-1.57 3.5-3.5S14.43 9 12.5 9zm-.5 1h1v2h2v1h-3z" fill="#f8f8f2"/>
 <path d="m8 2c-1.66 0-3 1.34-3 3 0 1.65 1.34 3 3 3s3-1.35 3-3c0-1.66-1.34-3-3-3zm0 2c0.55228 0 1 0.44772 1 1s-0.44772 1-1 1-1-0.44772-1-1 0.44772-1 1-1zm0 5a6 4 0 0 0-6 4v2h6.7637a4.5 4.5 0 0 1-0.72852-2h-4.0352a4 2 0 0 1 4-2 4 2 0 0 1 0.26562 0.005859 4.5 4.5 0 0 1 1.2559-1.875 6 4 0 0 0-1.5215-0.13086z" fill="#f8f8f2" opacity=".35"/>
</svg>

<svg xmlns="http://www.w3.org/2000/svg" width="16" height="16" version="1.1">
 <path style="opacity:0.3;fill:#dfdfdf" d="M 8,2 C 6.34,2 5,3.34 5,5 5,6.65 6.34,8 8,8 9.66,8 11,6.65 11,5 11,3.34 9.66,2 8,2 Z M 8,10 C 2,10 2,14 2,14 V 15 H 8.76 A 4.5,4.5 0 0 1 8,12.5 4.5,4.5 0 0 1 8.74,10.03 C 8.5,10.01 8.26,10 8,10 Z"/>
 <path style="fill:#dfdfdf" d="M 12.5,9 C 10.57,9 9,10.57 9,12.5 9,14.43 10.57,16 12.5,16 14.43,16 16,14.43 16,12.5 16,10.57 14.43,9 12.5,9 Z M 12,10 H 13 V 12 H 15 V 13 H 12 Z"/>
</svg>
